public/logo.svg

<svg width="204" height="41" viewBox="0 0 204 41" fill="none" xmlns="http://www.w3.org/2000/svg">
<g clip-path="url(#clip0)">
<path d="M30.2143 20.1427C30.2143 31.2673 39.2326 40.2856 50.3572 40.2856C61.4817 40.2856 70.5 31.2673 70.5 20.1427C70.5 9.01814 61.4817 -0.00012207 50.3572 -0.00012207C39.2326 -0.00012207 30.2143 9.01814 30.2143 20.1427Z" fill="black"/>
<path d="M60.3839 12.5943C59.9675 12.266 59.471 11.8175 58.5661 11.7054C57.7172 11.5933 56.8524 12.1619 56.2678 12.5382C55.6832 12.9146 54.5781 14.0197 54.1217 14.3561C53.6652 14.6924 52.496 15.0047 50.6142 16.1338C48.7323 17.263 41.3489 22.0037 41.3489 22.0037L43.2708 22.0277L34.7023 26.4401H35.5592L34.3259 27.377C34.3259 27.377 35.415 27.6653 36.3279 27.0888V27.353C36.3279 27.353 46.5301 23.333 48.5 24.374L47.2989 24.7264C47.403 24.7264 49.3409 24.8545 49.3409 24.8545C49.3409 24.8545 49.405 26.0637 50.5741 26.8405C51.7433 27.6093 51.7673 28.0337 51.7673 28.0337C51.7673 28.0337 51.1587 28.2819 51.1587 28.5943C51.1587 28.5943 52.0556 28.322 52.8884 28.346C53.7213 28.37 54.45 28.5943 54.45 28.5943C54.45 28.5943 54.3859 28.2579 53.5771 28.0337C52.7603 27.8015 51.9675 26.9286 51.5751 26.4481C51.1827 25.9676 50.9105 25.1108 51.2468 24.2539C51.5271 23.5252 52.504 23.1248 54.522 22.0838C56.9004 20.8505 57.445 19.9376 57.7813 19.2249C58.1176 18.5122 58.6141 17.0948 58.8944 16.4301C59.2468 15.5733 59.6792 15.1168 60.0395 14.8445C60.3919 14.5723 62.0015 13.9717 62.0015 13.9717C62.0015 13.9717 60.7763 12.9066 60.3839 12.5943Z" fill="white"/>
</g>
<rect x="30.8438" y="0.629342" width="39.0268" height="39.0268" rx="19.5134" stroke="white" stroke-width="1.25893"/>
<g clip-path="url(#clip1)">
<path d="M0 20.1429C0 31.2675 9.01826 40.2857 20.1429 40.2857C31.2675 40.2857 40.2857 31.2675 40.2857 20.1429C40.2857 9.01826 31.2675 0 20.1429 0C9.01826 0 0 9.01826 0 20.1429Z" fill="black"/>
<path fill-rule="evenodd" clip-rule="evenodd" d="M26.7501 10.9325H15.6859H15.1619H11.9978V18.2885V19.4775V20.1426H15.6852V23.8302H26.7494V20.1421H15.6859V19.4775V18.2885V14.6206H26.7501V10.9325ZM30.4381 14.6206H26.75V20.1427H30.4381V14.6206ZM11.9969 23.8304H15.685V25.6643V29.3524H11.9969V25.6643V24.7574V23.8304Z" fill="#D1FF52"/>
</g>
<rect x="0.629464" y="0.629464" width="39.0268" height="39.0268" rx="19.5134" stroke="#D1FF52" stroke-width="1.25893"/>
<path d="M92.8117 26.9688C91.5148 27.8672 90.0109 28.3164 88.2999 28.3164C86.1593 28.3164 84.5304 27.582 83.4132 26.1133C82.3038 24.6445 81.7492 22.5195 81.7492 19.7383C81.7492 17.0508 82.2882 14.9492 83.3663 13.4336C84.4445 11.9102 86.089 11.1484 88.2999 11.1484C89.0968 11.1484 89.8859 11.25 90.6671 11.4531C91.4484 11.6562 92.0773 11.9258 92.5538 12.2617L91.921 13.7734C90.8195 13.1484 89.6124 12.8359 88.2999 12.8359C86.7765 12.8359 85.6437 13.3906 84.9015 14.5C84.1593 15.6016 83.7882 17.3477 83.7882 19.7383C83.7882 24.332 85.2921 26.6289 88.2999 26.6289C89.5734 26.6289 90.8781 26.2383 92.214 25.457L92.8117 26.9688ZM106.072 16.1172L105.334 17.875C104.529 17.5234 103.834 17.3477 103.248 17.3477C102.709 17.3477 102.181 17.5039 101.666 17.8164C101.15 18.1211 100.674 18.5625 100.236 19.1406C99.8065 19.7109 99.5917 20.0312 99.5917 20.1016V28H97.7752V15.7891H99.5917V18.2617C100.568 16.418 101.834 15.4961 103.389 15.4961C104.31 15.4961 105.205 15.7031 106.072 16.1172ZM114.844 15.4961C116.524 15.4961 117.86 16.082 118.852 17.2539C119.844 18.4258 120.34 19.9688 120.34 21.8828C120.34 23.8125 119.844 25.3672 118.852 26.5469C117.86 27.7266 116.524 28.3164 114.844 28.3164C113.157 28.3164 111.817 27.7305 110.825 26.5586C109.84 25.3789 109.348 23.8203 109.348 21.8828C109.348 19.9609 109.844 18.418 110.836 17.2539C111.829 16.082 113.165 15.4961 114.844 15.4961ZM114.844 26.7227C115.954 26.7227 116.829 26.2539 117.469 25.3164C118.11 24.3789 118.43 23.2422 118.43 21.9062C118.43 20.5 118.114 19.3438 117.481 18.4375C116.848 17.5312 115.969 17.0781 114.844 17.0781C113.711 17.0781 112.833 17.5273 112.208 18.4258C111.583 19.3164 111.27 20.4766 111.27 21.9062C111.27 23.2656 111.586 24.4102 112.219 25.3398C112.852 26.2617 113.727 26.7227 114.844 26.7227ZM134.714 15.7891L132.956 28H131.562L128.691 21.0859L125.808 28H124.413L122.691 15.7891H124.507C125.156 21.4922 125.491 24.4844 125.515 24.7656L127.753 19.457H129.628L131.855 24.7305L132.839 15.7891H134.714ZM146.92 28H145.092V26.2422C144.717 26.8438 144.178 27.3398 143.475 27.7305C142.779 28.1211 142.045 28.3164 141.271 28.3164C139.873 28.3164 138.768 27.6953 137.955 26.4531C137.143 25.2031 136.736 23.6211 136.736 21.707C136.736 19.918 137.158 18.4375 138.002 17.2656C138.854 16.0859 139.979 15.4961 141.377 15.4961C142.916 15.4961 144.154 16.1211 145.092 17.3711V11.4648H146.92V28ZM145.092 24.2617V19.1875C144.217 17.7812 143.162 17.0781 141.928 17.0781C140.92 17.0781 140.123 17.5273 139.537 18.4258C138.951 19.3164 138.658 20.4453 138.658 21.8125C138.658 23.2188 138.932 24.3828 139.479 25.3047C140.033 26.2188 140.791 26.6758 141.752 26.6758C142.213 26.6758 142.678 26.5508 143.146 26.3008C143.615 26.0508 144.057 25.6758 144.471 25.1758C144.885 24.6758 145.092 24.3711 145.092 24.2617ZM159.77 28H154.778V13.0469H151.591V11.4648H156.606V26.418H159.77V28ZM169.621 15.4961C171.3 15.4961 172.636 16.082 173.628 17.2539C174.621 18.4258 175.117 19.9688 175.117 21.8828C175.117 23.8125 174.621 25.3672 173.628 26.5469C172.636 27.7266 171.3 28.3164 169.621 28.3164C167.933 28.3164 166.593 27.7305 165.601 26.5586C164.617 25.3789 164.124 23.8203 164.124 21.8828C164.124 19.9609 164.621 18.418 165.613 17.2539C166.605 16.082 167.941 15.4961 169.621 15.4961ZM169.621 26.7227C170.73 26.7227 171.605 26.2539 172.246 25.3164C172.886 24.3789 173.206 23.2422 173.206 21.9062C173.206 20.5 172.89 19.3438 172.257 18.4375C171.624 17.5312 170.746 17.0781 169.621 17.0781C168.488 17.0781 167.609 17.5273 166.984 18.4258C166.359 19.3164 166.046 20.4766 166.046 21.9062C166.046 23.2656 166.363 24.4102 166.996 25.3398C167.628 26.2617 168.503 26.7227 169.621 26.7227ZM188.354 28H186.537C186.389 27.5078 186.315 26.8516 186.315 26.0312C185.276 27.5547 183.861 28.3164 182.072 28.3164C181.166 28.3164 180.365 27.9961 179.67 27.3555C178.983 26.707 178.639 25.875 178.639 24.8594C178.639 24.2578 178.76 23.7266 179.002 23.2656C179.244 22.8047 179.6 22.418 180.069 22.1055C180.537 21.7852 181.108 21.5352 181.779 21.3555C182.451 21.168 183.248 21.0391 184.17 20.9688L186.221 20.8047V20.2188C186.221 18.125 185.244 17.0781 183.291 17.0781C182.83 17.0781 182.244 17.1797 181.533 17.3828C180.83 17.5781 180.225 17.8125 179.717 18.0859L179.236 16.7734C180.901 15.9219 182.447 15.4961 183.877 15.4961C186.658 15.4961 188.049 16.9688 188.049 19.9141V25.1641C188.049 26.2266 188.151 27.1719 188.354 28ZM186.221 24.3789V22.1641C184.572 22.3125 183.44 22.4531 182.822 22.5859C182.213 22.7109 181.682 22.9492 181.229 23.3008C180.783 23.6523 180.561 24.1289 180.561 24.7305C180.561 25.2773 180.752 25.7188 181.135 26.0547C181.518 26.3906 182.006 26.5586 182.6 26.5586C183.248 26.5586 183.893 26.3672 184.533 25.9844C185.174 25.5938 185.736 25.0586 186.221 24.3789ZM201.743 28H199.915V20.1719C199.915 19.0859 199.739 18.3008 199.388 17.8164C199.044 17.3242 198.501 17.0781 197.759 17.0781C196.641 17.0781 195.442 17.7734 194.161 19.1641V28H192.333V15.7891H194.161V17.582C195.474 16.1914 196.856 15.4961 198.309 15.4961C200.599 15.4961 201.743 16.8789 201.743 19.6445V28Z" fill="white" fill-opacity="0.9"/>
<defs>
<clipPath id="clip0">
</clipPath>
<clipPath id="clip1">
</clipPath>
</defs>
</svg>

<svg id="Layer_1" data-name="Layer 1" xmlns="http://www.w3.org/2000/svg" viewBox="0 0 204 41"><defs><style>.cls-1,.cls-5{fill:#fff;}.cls-2,.cls-4{fill:none;stroke-width:1.26px;}.cls-2{stroke:#fff;}.cls-3{fill:#d1ff52;fill-rule:evenodd;}.cls-4{stroke:#d1ff52;}.cls-5{fill-opacity:0.9;}</style></defs><path d="M30.21,20.14A20.15,20.15,0,1,0,50.36,0,20.15,20.15,0,0,0,30.21,20.14Z"/><path class="cls-1" d="M60.38,12.59a3.37,3.37,0,0,0-1.81-.88,3.65,3.65,0,0,0-2.3.83c-.59.37-1.69,1.48-2.15,1.82s-1.62.64-3.51,1.77S41.35,22,41.35,22l1.92,0L34.7,26.44h.86l-1.23.94a2.77,2.77,0,0,0,2-.29v.26s10.2-4,12.17-3l-1.2.36,2,.12a2.75,2.75,0,0,0,1.23,2c1.17.77,1.2,1.19,1.2,1.19s-.61.25-.61.56a6.23,6.23,0,0,1,1.73-.24,6.63,6.63,0,0,1,1.56.24s-.06-.33-.87-.56a4.75,4.75,0,0,1-2-1.58,2.23,2.23,0,0,1-.33-2.2c.28-.72,1.25-1.13,3.27-2.17,2.38-1.23,2.92-2.14,3.26-2.86s.83-2.13,1.11-2.79A3.72,3.72,0,0,1,60,14.84,14.32,14.32,0,0,1,62,14S60.78,12.91,60.38,12.59Z"/><path class="cls-2" d="M50.36.63h0A19.52,19.52,0,0,1,69.87,20.14h0A19.52,19.52,0,0,1,50.36,39.66h0A19.52,19.52,0,0,1,30.84,20.14h0A19.52,19.52,0,0,1,50.36.63Z"/><path d="M0,20.14A20.15,20.15,0,1,0,20.14,0,20.15,20.15,0,0,0,0,20.14Z"/><path class="cls-3" d="M26.75,10.93H12v9.21h3.69v3.69H26.75V20.14H15.69V14.62H26.75Zm3.69,3.69H26.75v5.52h3.69ZM12,23.83h3.69v5.52H12V23.83Z"/><path class="cls-4" d="M20.14.63h0A19.52,19.52,0,0,1,39.66,20.14h0A19.52,19.52,0,0,1,20.14,39.66h0A19.52,19.52,0,0,1,.63,20.14h0A19.52,19.52,0,0,1,20.14.63Z"/><path class="cls-5" d="M92.81,27a7.72,7.72,0,0,1-4.51,1.35,5.78,5.78,0,0,1-4.89-2.21q-1.66-2.2-1.66-6.37a10.73,10.73,0,0,1,1.62-6.31,5.63,5.63,0,0,1,4.93-2.28,9.51,9.51,0,0,1,2.37.3,6,6,0,0,1,1.88.81l-.63,1.51a7.26,7.26,0,0,0-3.62-.93,3.81,3.81,0,0,0-3.4,1.66,9.61,9.61,0,0,0-1.11,5.24q0,6.89,4.51,6.89a7.72,7.72,0,0,0,3.91-1.17Zm13.26-10.85-.74,1.76a5.21,5.21,0,0,0-2.08-.53,2.93,2.93,0,0,0-1.58.47,4.77,4.77,0,0,0-1.43,1.32,4.87,4.87,0,0,0-.65,1V28H97.78V15.79h1.81v2.47c1-1.84,2.24-2.76,3.8-2.76A6,6,0,0,1,106.07,16.12Zm8.77-.62a5,5,0,0,1,4,1.75,7,7,0,0,1,1.49,4.63,7,7,0,0,1-1.49,4.67,5,5,0,0,1-4,1.77,5,5,0,0,1-4-1.76,7.09,7.09,0,0,1-1.47-4.68,6.87,6.87,0,0,1,1.49-4.63A5,5,0,0,1,114.84,15.5Zm0,11.22a3,3,0,0,0,2.63-1.4,5.92,5.92,0,0,0,1-3.41,5.93,5.93,0,0,0-1-3.47,3.24,3.24,0,0,0-5.27,0,5.89,5.89,0,0,0-.94,3.48,6,6,0,0,0,1,3.43A3,3,0,0,0,114.84,26.72Zm19.87-10.93L133,28h-1.4l-2.87-6.91L125.81,28h-1.4l-1.72-12.21h1.82q1,8.55,1,9l2.24-5.31h1.88l2.22,5.27,1-8.94ZM146.92,28h-1.83V26.24a4.31,4.31,0,0,1-1.61,1.49,4.49,4.49,0,0,1-2.21.59A3.75,3.75,0,0,1,138,26.45a8.47,8.47,0,0,1-1.22-4.74A7.42,7.42,0,0,1,138,17.27a4,4,0,0,1,3.38-1.77,4.41,4.41,0,0,1,3.71,1.87V11.46h1.83Zm-1.83-3.74V19.19a3.74,3.74,0,0,0-3.16-2.11,2.71,2.71,0,0,0-2.39,1.35,6,6,0,0,0-.88,3.38,6.7,6.7,0,0,0,.82,3.49,2.54,2.54,0,0,0,2.27,1.38,3,3,0,0,0,1.4-.38,4.39,4.39,0,0,0,1.32-1.12A2.92,2.92,0,0,0,145.09,24.26ZM159.77,28h-5V13.05h-3.19V11.46h5v15h3.16Zm9.85-12.5a5,5,0,0,1,4,1.75,7,7,0,0,1,1.49,4.63,7,7,0,0,1-1.49,4.67,5.45,5.45,0,0,1-8,0,7.09,7.09,0,0,1-1.48-4.68,6.92,6.92,0,0,1,1.49-4.63A5,5,0,0,1,169.62,15.5Zm0,11.22a3,3,0,0,0,2.63-1.4,5.92,5.92,0,0,0,1-3.41,5.93,5.93,0,0,0-1-3.47,3.25,3.25,0,0,0-5.28,0,6,6,0,0,0-.93,3.48,5.89,5.89,0,0,0,.95,3.43A3,3,0,0,0,169.62,26.72ZM188.35,28h-1.81a7,7,0,0,1-.22-2,4.9,4.9,0,0,1-4.25,2.29,3.46,3.46,0,0,1-2.4-1,3.27,3.27,0,0,1-1-2.5,3.39,3.39,0,0,1,.36-1.59,3,3,0,0,1,1.07-1.16,5.6,5.6,0,0,1,1.71-.75,12.29,12.29,0,0,1,2.39-.39l2.05-.17v-.58c0-2.1-1-3.14-2.93-3.14a6.78,6.78,0,0,0-1.76.3,8.76,8.76,0,0,0-1.81.71l-.48-1.32a10.26,10.26,0,0,1,4.64-1.27q4.17,0,4.17,4.41v5.25A12.13,12.13,0,0,0,188.35,28Zm-2.13-3.62V22.16a31.19,31.19,0,0,0-3.4.43,3.72,3.72,0,0,0-1.59.71,1.71,1.71,0,0,0-.67,1.43,1.66,1.66,0,0,0,.57,1.32,2.16,2.16,0,0,0,1.47.51,3.66,3.66,0,0,0,1.93-.58A5.69,5.69,0,0,0,186.22,24.38ZM201.74,28h-1.83V20.17a4.09,4.09,0,0,0-.52-2.35,1.84,1.84,0,0,0-1.63-.74c-1.12,0-2.32.69-3.6,2.08V28h-1.83V15.79h1.83v1.79a5.71,5.71,0,0,1,4.15-2.08q3.44,0,3.43,4.14Z"/></svg>
